X:1
T: Molly, what ails you?
C:
R:Reel
Q: 232
K:D
M:4/4
L:1/8
|:FG|A3F AB de|fd gf ed Bd|A2 AF AB de|fg ef d2 dB|
AB AF AB de|fd d2 ed Bd|A2 AF AB de|fg ec d2 df|
fa af gb bg|af ef dB B2|fa af gb bg|af ef d2 de|
fa af gb bg|af ef dB Bd|A2 AF AB de|fg ec d2:|
